X:1
T:Title
%%score { 1 | ( 2 3 ) }
L:1/8
M:6/8
K:Eb
V:1 treble nm="Grand Piano"
V:2 bass 
V:3 bass 
V:1
 z3 z2[Q:1/4=87] [EG]/[FA]/ | [GB]2 [GB] [GB]>[_G=A][=GB] | [Ac]2 [GB] [GB]2 G | B2 A [FA]3 | %4
 [Ac][GB][_G=A] [=GB]2 [EG]/[F_A]/ | [GB]2 [GB] [GB]>[_G=A][=GB] | [Ac]2 [GB] [GB]2 G | %7
 FGA [EG]2 [DF] | E6 | G3 B3 | [CA]3 [Ec]2 [Ec] | B>BB GFE | [EG]3 [DF]3 | [EG]3 [EB]3 | %14
 [CA]3 [Ec]2 [Ec] | [EB]>[B,EG][G,E] [A,DF]2 [B,DG] |[M:5/8] [G,B,E]-[G,B,E]- [G,B,E]3 |] %17
V:2
 z3 z2 [E,B,] | [E,E]2 [E,E] [E,E]>[E,E][E,E] | [E,E]2 [E,E] [E,E]2 [E,B,E] | %3
 [F,B,D]2 [F,B,D] [B,,B,]3 | [E,B,]2 [E,E] [E,E]2 [E,B,] | [E,E]2 [E,E] [E,E]>[E,E][E,E] | %6
 [E,E]2 [E,E] [E,E]2 [E,B,E] | [A,CE][G,C=E][F,CF] [B,,B,]2 [B,,A,] | [E,G,]6 | [E,B,E]3 [E,G,E]3 | %10
 [A,,A,]3 [A,,A,]2 [A,,A,] | z3 .B,3 | [B,,B,]3 [B,,B,]3 | [E,B,]3 [E,G,]3 | %14
 [A,,A,]3 [A,,A,]2 [A,,A,] | [B,,G,]>B,,B,, B,,2 B,, |[M:5/8] E,-E,- E,3 |] %17
V:3
 x6 | x6 | x6 | x6 | x6 | x6 | x6 | x6 | x6 | x6 | x6 | %11
 [E,G,E]>[E,G,E][E,G,E] [E,E]-[E,A,E][E,G,] | x6 | x6 | x6 | x6 |[M:5/8] x5 |] %17

